src/components/icons/text.svg

<svg xmlns="http://www.w3.org/2000/svg" fill="none" viewBox="0 0 32 32"><path stroke="currentColor" d="M10.5 13v-2.5H16m5.5 2.5v-2.5H16m0 0v11m0 0h-3m3 0h3"/></svg>

<svg width="32" height="32" viewBox="0 0 32 32" fill="none" xmlns="http://www.w3.org/2000/svg">
<path d="M10.5 13V10.5H16M21.5 13V10.5H16M16 10.5V21.5M16 21.5H13M16 21.5H19" stroke="black"/>
</svg>
